X: 335
T: Bantry Bay
%R: reel
Z: 2014 John Chambers <jc:trillian.mit.edu>
B: Preston "Twenty four Country Dances for the Year 1798" p.148 #1
F: http://www.vwml.org/browse/browse-collections-dance-tune-books/browse-prestons1798# 2014-8-10
N: Added dots to final notes to fix the rhythm.
M: C|
L: 1/8
K: G
|:\
d2BG BGcA | d2BG cA2c |\
d2BG BGdf | gedc BG3 :: gbeg fadf |
egdB cA2f |[1 gbeg fadf | gedc BG3 :|\
[2 g>aba gfed | egdc BG3 |]
% - - - - - - - - - - - - - - - - - - - - - - - - -
%%begintext align
%% 1st Lady turn the 2d Gent .| 1st Gent: turn the
%% 2d Lady :| Lead down 2 Cu: :|. up again foot it
%% and Cast off :|:
%%endtext
% - - - - - - - - - - - - - - - - - - - - - - - - -

%%sep 1 1 500
%%sep 1 1 500
